X: 28299
T: Mrs. Will
R: strathspey
M: 4/4
K: Dmajor
A/|:d/c/B/A/ d>D F<A A>=c|B>G A>F G<E E>A|d/c/B/A/ d>D F<A A>g|1 f/e/d e>c d2d3/2A/:|2 f/e/d e>c d2d3/2g/||
f/e/d g/f/e a<f d>d|c/B/A d/c/B e<c A>g|f/e/d g/f/e a<f d>g|f/e/d e/d/c d2d3/2g/|
f/e/d g/f/e a<f d>d|c/B/A d/c/B e<c A>c|d/c/B/A/ d>D F<A A>f|g/a/b a>c d2d3/2||

